images/skills/1-skills-frontend-lg.svg

<svg width="420" height="325" viewBox="0 0 420 325" xmlns="http://www.w3.org/2000/svg"><title>frontend</title><desc>Created with Sketch.</desc><g fill="#fff"><path d="M210.077 117.592c-38.924 0-72.287 35.033-80.28 44.4 7.993 9.364 41.356 44.398 80.28 44.398s72.287-35.034 80.28-44.4c-7.993-9.365-41.356-44.398-80.28-44.398zm0 77.698c-18.42 0-33.363-14.916-33.363-33.3 0-18.383 14.944-33.298 33.363-33.298 18.42 0 33.363 14.915 33.363 33.3 0 18.382-14.944 33.298-33.363 33.298z"/><path d="M210.077 136.323c-14.25 0-26.065 11.446-26.065 25.668 0 14.57 11.816 26.016 26.065 26.016 14.248 0 26.065-11.447 26.065-26.015 0-14.22-11.817-25.667-26.065-25.667zm0 44.398c-10.078 0-18.42-8.323-18.42-18.73 0-2.08 1.39-3.468 3.476-3.468 2.085 0 3.823 1.388 3.823 3.47 0 6.242 4.865 11.098 11.12 11.098 6.256 0 11.12-4.856 11.12-11.1 0-5.896-4.864-11.1-11.12-11.1-2.085 0-3.822-1.386-3.822-3.468 0-2.08 1.737-3.815 3.823-3.815 10.078 0 18.42 8.325 18.42 18.384 0 10.407-8.342 18.73-18.42 18.73z"/><path d="M0 0v325h205v-10.466l-124.494-71.64C78.956 242 78 240.347 78 238.558V92.39c0-1.79.967-3.44 2.517-4.334l127.005-73.084c1.544-.888 3.446-.888 4.99 0l126.99 73.084c1.55.893 2.498 2.545 2.498 4.334V238.56c0 1.788-.945 3.44-2.496 4.333l-110.254 63.42c-2.394 1.378-5.448.554-6.825-1.84-1.377-2.394-.562-5.45 1.832-6.827L332 235.666V95.284L210 25.077 88 95.283v140.384l124.494 71.642c1.55.892 2.506 2.544 2.506 4.333V325h205V0H0zm210.077 214.02c-48.308 0-86.536-47.52-88.274-49.6-1.043-1.39-1.043-3.123 0-4.51 1.738-2.082 39.966-49.602 88.274-49.602 48.307 0 86.535 47.52 88.273 49.602 1.043 1.387 1.043 3.12 0 4.51-1.738 2.08-39.966 49.6-88.273 49.6z"/></g></svg>

<?xml version="1.0" encoding="UTF-8" standalone="no"?>
<svg width="420px" height="325px" viewBox="0 0 420 325" version="1.1" xmlns="http://www.w3.org/2000/svg" xmlns:xlink="http://www.w3.org/1999/xlink" xmlns:sketch="http://www.bohemiancoding.com/sketch/ns">
    <!-- Generator: Sketch 3.2.2 (9983) - http://www.bohemiancoding.com/sketch -->
    <title>frontend</title>
    <desc>Created with Sketch.</desc>
    <defs></defs>
    <g id="Large" stroke="none" stroke-width="1" fill="none" fill-rule="evenodd" sketch:type="MSPage">
        <g id="Group" sketch:type="MSLayerGroup" fill="#FFFFFF">
            <g id="frontend" sketch:type="MSShapeGroup">
                <path d="M210.077,117.592 C171.153,117.592 137.79,152.625 129.797,161.991 C137.79,171.356 171.153,206.39 210.077,206.39 C249.001,206.39 282.364,171.356 290.357,161.991 C282.364,152.625 249.001,117.592 210.077,117.592 L210.077,117.592 Z M210.077,195.29 C191.658,195.29 176.714,180.374 176.714,161.991 C176.714,143.607 191.658,128.692 210.077,128.692 C228.496,128.692 243.44,143.607 243.44,161.991 C243.44,180.374 228.496,195.29 210.077,195.29 L210.077,195.29 Z" id="Fill-1"></path>
                <path d="M210.077,136.323 C195.828,136.323 184.012,147.769 184.012,161.991 C184.012,176.559 195.828,188.006 210.077,188.006 C224.325,188.006 236.142,176.559 236.142,161.991 C236.142,147.769 224.325,136.323 210.077,136.323 L210.077,136.323 Z M210.077,180.721 C199.999,180.721 191.658,172.397 191.658,161.991 C191.658,159.91 193.047,158.522 195.133,158.522 C197.218,158.522 198.956,159.91 198.956,161.991 C198.956,168.234 203.821,173.09 210.077,173.09 C216.332,173.09 221.197,168.234 221.197,161.991 C221.197,156.094 216.332,150.891 210.077,150.891 C207.991,150.891 206.254,149.504 206.254,147.422 C206.254,145.341 207.991,143.607 210.077,143.607 C220.155,143.607 228.496,151.932 228.496,161.991 C228.496,172.397 220.155,180.721 210.077,180.721 L210.077,180.721 Z" id="Fill-2"></path>
                <path d="M0,0 L0,325 L205,325 L205,314.534 L80.506,242.893 C78.956,242 78,240.348 78,238.559 L78,92.392 C78,90.603 78.967,88.951 80.517,88.058 L207.522,14.974 C209.066,14.086 210.968,14.086 212.512,14.974 L339.503,88.058 C341.053,88.951 342,90.603 342,92.392 L342,238.559 C342,240.348 341.055,242.001 339.504,242.893 L229.25,306.314 C226.856,307.691 223.802,306.867 222.425,304.473 C221.048,302.079 221.863,299.023 224.257,297.646 L332,235.667 L332,95.283 L210,25.077 L88,95.283 L88,235.667 L212.494,307.309 C214.044,308.202 215,309.854 215,311.643 L215,325 L420,325 L420,0 L0,0 L0,0 Z M210.077,214.021 C161.769,214.021 123.541,166.5 121.803,164.419 C120.76,163.031 120.76,161.297 121.803,159.91 C123.541,157.828 161.769,110.308 210.077,110.308 C258.384,110.308 296.612,157.828 298.35,159.91 C299.393,161.297 299.393,163.031 298.35,164.419 C296.612,166.5 258.384,214.021 210.077,214.021 L210.077,214.021 Z" id="Fill-3"></path>
            </g>
        </g>
    </g>
</svg>
